icons-dark/actions/22/anchor.svg

<?xml version="1.0" encoding="UTF-8" standalone="no"?>
<!-- Created with Inkscape (http://www.inkscape.org/) -->

<svg
   xmlns:dc="http://purl.org/dc/elements/1.1/"
   xmlns:cc="http://creativecommons.org/ns#"
   xmlns:rdf="http://www.w3.org/1999/02/22-rdf-syntax-ns#"
   xmlns:svg="http://www.w3.org/2000/svg"
   xmlns="http://www.w3.org/2000/svg"
   xmlns:sodipodi="http://sodipodi.sourceforge.net/DTD/sodipodi-0.dtd"
   xmlns:inkscape="http://www.inkscape.org/namespaces/inkscape"
   width="22"
   height="22"
   id="svg3760"
   version="1.1"
   inkscape:version="0.91 r13725"
   sodipodi:docname="anchor.svg">
  <defs
     id="defs3762">
    <style
       type="text/css"
       id="current-color-scheme">
      .ColorScheme-Text {
        color:#f2f2f2;
      }
      .ColorScheme-Background {
        color:#31363b;
      }
      .ColorScheme-Highlight {
        color:#3daee9;
      }
      .ColorScheme-ViewText {
        color:#31363b;
      }
      .ColorScheme-ViewBackground {
        color:#4f575f;
      }
      .ColorScheme-ViewHover {
        color:#93cee9;
      }
      .ColorScheme-ViewFocus{
        color:#3daee9;
      }
      .ColorScheme-ButtonText {
        color:#31363b;
      }
      .ColorScheme-ButtonBackground {
        color:#31363b;
      }
      .ColorScheme-ButtonHover {
        color:#93cee9;
      }
      .ColorScheme-ButtonFocus{
        color:#3daee9;
      }
      </style>
  </defs>
  <sodipodi:namedview
     id="base"
     pagecolor="#ffffff"
     bordercolor="#666666"
     borderopacity="1.0"
     inkscape:pageopacity="0.0"
     inkscape:pageshadow="2"
     inkscape:zoom="16.3125"
     inkscape:cx="11.199125"
     inkscape:cy="10.786868"
     inkscape:document-units="px"
     inkscape:current-layer="layer1"
     showgrid="true"
     fit-margin-top="0"
     fit-margin-left="0"
     fit-margin-right="0"
     fit-margin-bottom="0"
     inkscape:window-width="1024"
     inkscape:window-height="707"
     inkscape:window-x="0"
     inkscape:window-y="0"
     inkscape:window-maximized="1"
     inkscape:showpageshadow="false">
    <sodipodi:guide
       position="-0.99999557,22.999999"
       orientation="24,0"
       id="guide4115" />
    <sodipodi:guide
       position="-0.99999557,-1.0000018"
       orientation="0,24"
       id="guide4117" />
    <sodipodi:guide
       position="23.000004,-1.0000018"
       orientation="-24,0"
       id="guide4119" />
    <sodipodi:guide
       position="23.000004,22.999999"
       orientation="0,-24"
       id="guide4121" />
    <sodipodi:guide
       position="2.0000044,19.999999"
       orientation="18,0"
       id="guide4123" />
    <sodipodi:guide
       position="2.0000044,1.9999981"
       orientation="0,18"
       id="guide4125" />
    <sodipodi:guide
       position="20.000004,1.9999981"
       orientation="-18,0"
       id="guide4127" />
    <sodipodi:guide
       position="20.000004,19.999999"
       orientation="0,-18"
       id="guide4129" />
    <sodipodi:guide
       position="3.0000044,18.999999"
       orientation="16,0"
       id="guide4131" />
    <sodipodi:guide
       position="3.0000044,2.9999981"
       orientation="0,16"
       id="guide4133" />
    <sodipodi:guide
       position="19.000004,2.9999981"
       orientation="-16,0"
       id="guide4135" />
    <sodipodi:guide
       position="19.000004,18.999999"
       orientation="0,-16"
       id="guide4137" />
    <inkscape:grid
       type="xygrid"
       id="grid4139"
       originx="-0.99998114"
       originy="-1.0000137" />
  </sodipodi:namedview>
  <metadata
     id="metadata3765">
    <rdf:RDF>
      <cc:Work
         rdf:about="">
        <dc:format>image/svg+xml</dc:format>
        <dc:type
           rdf:resource="http://purl.org/dc/dcmitype/StillImage" />
        <dc:title></dc:title>
      </cc:Work>
    </rdf:RDF>
  </metadata>
  <g
     inkscape:label="Capa 1"
     inkscape:groupmode="layer"
     id="layer1"
     transform="translate(-551.28571,-607.64789)">
    <g
       id="layer1-3"
       inkscape:label="Capa 1">
      <path
         id="rect3870"
         transform="translate(550.28571,606.64789)"
         d="m 12,4 c -1.104569,0 -2,0.8954305 -2,2 0,0.9319805 0.637301,1.7155373 1.5,1.9375 L 11.5,10 9,10 l 0,1 2.5,0 0,7.96875 c -2.5390395,-0.162769 -4.7483934,-1.512158 -6.09375,-3.5 L 5.59375,15.375 6.5,14.875 6,14 c 1.89e-5,1.7e-5 -3,1.625 -3,1.625 L 3.5,16.5 4.53125,15.9375 C 6.1354118,18.373143 8.8668472,20 12,20 c 3.133153,0 5.863905,-1.626857 7.46875,-4.0625 L 20.5,16.5 21,15.625 C 21.000014,15.624367 18,14 18,14 l -0.5,0.875 0.90625,0.5 0.1875,0.09375 c -1.345357,1.987842 -3.554711,3.337231 -6.09375,3.5 L 12.5,11 l 2.5,0 0,-1 -2.5,0 0,-2.0625 C 13.362699,7.7155373 14,6.9319805 14,6 14,4.8954305 13.104569,4 12,4 Z m 0,1 c 0.552285,0 1,0.4477153 1,1 0,0.5522847 -0.447715,1 -1,1 -0.552285,0 -1,-0.4477153 -1,-1 0,-0.5522847 0.447715,-1 1,-1 z"
         style="color:#000000;display:inline;overflow:visible;visibility:visible;fill:#f2f2f2;fill-opacity:1;fill-rule:evenodd;stroke:none;stroke-width:2;marker:none;enable-background:accumulate"
         inkscape:connector-curvature="0" />
    </g>
  </g>
</svg>

<svg xmlns="http://www.w3.org/2000/svg" viewBox="0 0 22 22">
  <defs id="defs3051">
    <style type="text/css" id="current-color-scheme">
      .ColorScheme-Text {
        color:#f2f2f2
      }
      </style>
  </defs>
 <path 
     style="fill:currentColor;fill-opacity:1;stroke:none" 
	transform="translate(-1-1)" d="m12 4c-1.104569 0-2 .89543-2 2 0 .93198.637301 1.715537 1.5 1.9375v2.0625h-2.5v1h2.5v7.96875c-2.539039-.162769-4.748393-1.512158-6.09375-3.5l.1875-.09375.90625-.5-.5-.875c.000019.000017-3 1.625-3 1.625l.5.875 1.03125-.5625c1.604162 2.435643 4.335597 4.0625 7.46875 4.0625 3.133153 0 5.863905-1.626857 7.46875-4.0625l1.03125.5625.5-.875c.000014-.000633-3-1.625-3-1.625l-.5.875.90625.5.1875.09375c-1.345357 1.987842-3.554711 3.337231-6.09375 3.5v-7.96875h2.5v-1h-2.5v-2.0625c.862699-.221963 1.5-1.00552 1.5-1.9375 0-1.10457-.895431-2-2-2m0 1c.552285 0 1 .447715 1 1 0 .552285-.447715 1-1 1-.552285 0-1-.447715-1-1 0-.552285.447715-1 1-1z" 
	 class="ColorScheme-Text"
     />
</svg>
